TrafficJam2023/images/icons/box.svg

<svg width="34" height="38" viewBox="0 0 34 38" fill="none" xmlns="http://www.w3.org/2000/svg">
<path d="M32.5 10.25L17 1.5L9.25 5.875M32.5 10.25V27.75L17 36.5M32.5 10.25L24.75 14.625M17 36.5L1.5 27.75V10.25M17 36.5V19M1.5 10.25L17 19M1.5 10.25L9.25 5.875M17 19L24.75 14.625M9.25 5.875L24.75 14.625" stroke="#FCFDFD" stroke-width="2"/>
</svg>

<svg xmlns="http://www.w3.org/2000/svg" width="34" height="38" fill="none" viewBox="0 0 34 38"><path stroke="#FCFDFD" stroke-width="2" d="M32.5 10.25 17 1.5 9.25 5.875M32.5 10.25v17.5L17 36.5m15.5-26.25-7.75 4.375M17 36.5 1.5 27.75v-17.5M17 36.5V19M1.5 10.25 17 19M1.5 10.25l7.75-4.375M17 19l7.75-4.375m-15.5-8.75 15.5 8.75"/></svg>
